www/assets/icons/privacy_tip.svg

<svg xmlns="http://www.w3.org/2000/svg" width="24" height="24" viewBox="0 0 24 24" fill='currentColor'><path d="M12 1 3 5v6c0 5.55 3.84 10.74 9 12 5.16-1.26 9-6.45 9-12V5zm-1 6h2v2h-2zm0 4h2v6h-2z"/></svg>

<svg width="24" height="24" viewBox="0 0 24 24" xmlns="http://www.w3.org/2000/svg" fill='currentColor'><path d="M12 1L3 5V11C3 16.55 6.84 21.74 12 23C17.16 21.74 21 16.55 21 11V5L12 1ZM11 7H13V9H11V7ZM11 11H13V17H11V11Z"/></svg>
